X: 22434
T: Lads O The Fair
R: reel
M: 4/4
K: Dmajor
D2 d2 d4|cB AB cd3|D2 d2 d2 cd|B4 A4|F2 GG GB|A2 FD E2 GE|D2 D2 GA Bc|
d2 F2 E2 HD2||

